X: 24698
T: MacMurrough, The
R: jig
M: 6/8
K: Dmajor
A|dAF Ddf|ecA Aeg|fed agf|f3 e2A|
dAF Ddf|ecA Aeg|faf gec|(e3 d)z:|
|:f|afd dfa|bgd dgb|afd afd|f3 e2f|
afd dfa|bgd dgb|afd ABc|(e3 d)z:|

